svg/fluentui-system-icons/ic_fluent_text_change_case_24_regular.svg

<svg width="24" height="24" viewBox="0 0 24 24" fill="none" xmlns="http://www.w3.org/2000/svg">
<path d="M16.5106 3.00008C16.8242 3.00452 17.1019 3.20362 17.2068 3.49919L22.7068 18.9992C22.8453 19.3896 22.6411 19.8183 22.2508 19.9568C21.8604 20.0953 21.4317 19.8912 21.2931 19.5008L19.8735 15.5L12.7558 15.5L11.1994 19.5207C11.0499 19.907 10.6155 20.099 10.2292 19.9494C9.84293 19.7999 9.651 19.3655 9.80053 18.9793L15.8005 3.47925C15.9137 3.18678 16.197 2.99563 16.5106 3.00008ZM16.4694 5.90659L13.3364 14L19.3412 14L16.4694 5.90659ZM5.50005 10.5014L5.78725 10.5113C7.74783 10.6088 8.91466 11.7373 8.9955 13.5555L9 13.7604V19.2604C9 19.6401 8.71785 19.9539 8.35177 20.0035L8.25 20.0104C7.8703 20.0104 7.55651 19.7282 7.50685 19.3621L7.5 19.2604L7.49865 19.156C6.51108 19.7214 5.59755 20.0104 4.75 20.0104C2.91158 20.0104 1.5 18.7159 1.5 16.7604C1.5 15.036 2.68843 13.7549 4.6597 13.5158C5.592 13.4028 6.53953 13.4736 7.49853 13.7255C7.4887 12.6184 6.94255 12.0706 5.71275 12.0095C4.75051 11.9616 4.07429 12.0967 3.67825 12.3744C3.33911 12.6123 2.87139 12.5301 2.63357 12.191C2.39576 11.8518 2.47789 11.3841 2.81703 11.1463C3.47484 10.685 4.37072 10.4807 5.50005 10.5014ZM7.499 15.3241L7.19613 15.2338C6.38875 15.0117 5.60483 14.9486 4.8403 15.0413C3.60791 15.1908 3 15.8461 3 16.7967C3 17.8934 3.7124 18.5467 4.75 18.5467C5.43032 18.5467 6.26848 18.2324 7.25129 17.583L7.499 17.4141V15.3241Z" fill="#212121"/>
</svg>

<svg xmlns="http://www.w3.org/2000/svg" width="24" height="24"><path d="M16.51 3a.75.75 0 0 1 .697.5l5.5 15.5a.75.75 0 0 1-1.414.5l-1.42-4h-7.117l-1.557 4.02a.75.75 0 1 1-1.398-.54l6-15.5a.75.75 0 0 1 .71-.48Zm-.04 2.907L13.335 14h6.005l-2.87-8.093ZM5.5 10.5l.287.01c1.96.098 3.128 1.226 3.208 3.045L9 13.76v5.5a.75.75 0 0 1-.648.743l-.102.007a.75.75 0 0 1-.743-.648L7.5 19.26l-.001-.104c-.988.565-1.901.854-2.749.854-1.838 0-3.25-1.294-3.25-3.25 0-1.724 1.188-3.005 3.16-3.244a7.529 7.529 0 0 1 2.839.21c-.01-1.108-.556-1.655-1.786-1.717-.962-.047-1.639.088-2.035.365a.75.75 0 1 1-.861-1.228c.658-.461 1.554-.665 2.683-.645Zm2 4.824-.303-.09a6.058 6.058 0 0 0-2.356-.193c-1.232.15-1.84.805-1.84 1.756 0 1.096.712 1.75 1.75 1.75.68 0 1.518-.315 2.501-.964l.248-.169v-2.09Z"/></svg>
